svg/Pictogram/pictograms-aem-0076r-wear_respirator-half_face.svg

<?xml version="1.0" encoding="UTF-8" standalone="no"?>
<svg height="304" id="svg2" inkscape:output_extension="org.inkscape.output.svg.inkscape" inkscape:version="0.46" sodipodi:docname="pictograms-aem-0076r-wear_respirator-half_face-2.svg" sodipodi:version="0.32" version="1.0" width="304" xmlns="http://www.w3.org/2000/svg" xmlns:cc="http://creativecommons.org/ns#" xmlns:dc="http://purl.org/dc/elements/1.1/" xmlns:inkscape="http://www.inkscape.org/namespaces/inkscape" xmlns:rdf="http://www.w3.org/1999/02/22-rdf-syntax-ns#" xmlns:sodipodi="http://sodipodi.sourceforge.net/DTD/sodipodi-0.dtd" xmlns:svg="http://www.w3.org/2000/svg">
  <metadata>
    <rdf:RDF xmlns:cc="http://web.resource.org/cc/" xmlns:dc="http://purl.org/dc/elements/1.1/" xmlns:rdf="http://www.w3.org/1999/02/22-rdf-syntax-ns#">
      <cc:Work rdf:about="">
        <dc:title></dc:title>
        <dc:description></dc:description>
        <dc:subject>
          <rdf:Bag>
            <rdf:li></rdf:li>
          </rdf:Bag>
        </dc:subject>
        <dc:publisher>
          <cc:Agent rdf:about="http://www.unece.org/trans/danger/publi/ghs/pictograms.html">
            <dc:title>Source: UNECE GHS of Classification and Labeling of Chemicals, Source: AEM Pictorial Database, Source: AEM Pictorial Database, Source: AEM Pictorial Database, Source: AEM Pictorial Database</dc:title>
          </cc:Agent>
        </dc:publisher>
        <dc:creator>
          <cc:Agent>
            <dc:title></dc:title>
          </cc:Agent>
        </dc:creator>
        <dc:rights>
          <cc:Agent>
            <dc:title></dc:title>
          </cc:Agent>
        </dc:rights>
        <dc:date></dc:date>
        <dc:format>image/svg+xml</dc:format>
        <dc:type rdf:resource="http://purl.org/dc/dcmitype/StillImage"/>
        <cc:license rdf:resource="http://en.wikipedia.org/wiki/Public_domain"/>
        <dc:language>en</dc:language>
      </cc:Work>
    </rdf:RDF>
  </metadata>
  <sodipodi:namedview bordercolor="#666666" borderopacity="1.0" gridtolerance="10.0" guidetolerance="10.0" id="base" inkscape:current-layer="svg2" inkscape:cx="152.00549" inkscape:cy="170.2905" inkscape:pageopacity="0.0" inkscape:pageshadow="2" inkscape:window-height="674" inkscape:window-width="640" inkscape:window-x="107" inkscape:window-y="99" inkscape:zoom="1.3623778" objecttolerance="10.0" pagecolor="#ffffff" showgrid="false"/>
  <defs id="defs6">
    <inkscape:perspective id="perspective38" inkscape:persp3d-origin="152.00549 : 113.527 : 1" inkscape:vp_x="0 : 170.2905 : 1" inkscape:vp_y="0 : 1000 : 0" inkscape:vp_z="304.01099 : 170.2905 : 1" sodipodi:type="inkscape:persp3d"/>
    <marker id="ArrowEnd" markerHeight="3" markerUnits="strokeWidth" markerWidth="4" orient="auto" refX="0" refY="5" viewBox="0 0 10 10">
      <path d="M 0,0 L 10,5 L 0,10 L 0,0 z" id="path9"/>
    </marker>
    <marker id="ArrowStart" markerHeight="3" markerUnits="strokeWidth" markerWidth="4" orient="auto" refX="10" refY="5" viewBox="0 0 10 10">
      <path d="M 10,0 L 0,5 L 10,10 L 10,0 z" id="path12"/>
    </marker>
  </defs>
  <g id="g2958" transform="matrix(1.3532768,0,0,1.3532781,-53.207834,-52.192858)">
    <path d="M 289.905,339.074 C 290.39,339.597 290.89,340.101 291.417,340.581" id="path15" style="fill:#000000;fill-rule:evenodd;stroke:none"/>
    <path d="M 64.0345,195.69 C 61.8352,195.69 60.054,197.472 60.054,199.667 C 60.054,201.862 61.8352,203.643 64.0345,203.643 C 66.2298,203.643 68.011,201.862 68.011,199.667 C 68.011,197.472 66.2298,195.69 64.0345,195.69 z M 76.9485,195.69 C 74.7532,195.69 72.972,197.472 72.972,199.667 C 72.972,201.862 74.7532,203.643 76.9485,203.643 C 79.1438,203.643 80.9251,201.862 80.9251,199.667 C 80.9251,197.472 79.1438,195.69 76.9485,195.69 z M 89.9095,203.69 C 92.1048,203.69 93.886,201.909 93.886,199.714 C 93.886,197.515 92.1048,195.733 89.9095,195.733 C 87.7102,195.733 85.9329,197.515 85.9329,199.714 C 85.9329,201.909 87.7102,203.69 89.9095,203.69 z M 89.9095,221.608 C 87.7102,221.608 85.9329,223.39 85.9329,225.585 C 85.9329,227.784 87.7102,229.565 89.9095,229.565 C 92.1048,229.565 93.886,227.784 93.886,225.585 C 93.886,223.39 92.1048,221.608 89.9095,221.608 z M 89.9524,208.659 C 87.7571,208.659 85.9759,210.44 85.9759,212.636 C 85.9759,214.831 87.7571,216.612 89.9524,216.612 C 92.1477,216.612 93.929,214.831 93.929,212.636 C 93.929,210.44 92.1477,208.659 89.9524,208.659 z M 76.9016,221.608 C 74.7063,221.608 72.9251,223.39 72.9251,225.585 C 72.9251,227.784 74.7063,229.565 76.9016,229.565 C 79.1009,229.565 80.8821,227.784 80.8821,225.585 C 80.8821,223.39 79.1009,221.608 76.9016,221.608 z M 63.9876,221.608 C 61.7923,221.608 60.011,223.39 60.011,225.585 C 60.011,227.784 61.7923,229.565 63.9876,229.565 C 66.1829,229.565 67.9642,227.784 67.9642,225.585 C 67.9642,223.39 66.1829,221.608 63.9876,221.608 z M 76.9485,208.647 C 74.7532,208.647 72.972,210.429 72.972,212.628 C 72.972,214.823 74.7532,216.604 76.9485,216.604 C 79.1438,216.604 80.9251,214.823 80.9251,212.628 C 80.9251,210.429 79.1438,208.647 76.9485,208.647 z M 64.011,208.671 C 61.8157,208.671 60.0345,210.452 60.0345,212.647 C 60.0345,214.847 61.8118,216.628 64.011,216.628 C 66.2063,216.628 67.9876,214.847 67.9876,212.647 C 67.9876,210.452 66.2063,208.671 64.011,208.671 z M 76.9993,244.695 C 68.4485,244.695 60.4173,241.367 54.3743,235.323 C 48.3274,229.28 44.9993,221.245 44.9993,212.698 C 44.9993,204.151 48.3313,196.116 54.3743,190.069 C 60.4173,184.026 68.4524,180.698 76.9993,180.698 C 94.6438,180.698 108.999,194.815 108.999,212.698 C 108.999,239.702 85.5462,244.695 76.9993,244.695 z M 93.929,212.636 C 93.929,210.44 92.1477,208.659 89.9524,208.659 C 87.7571,208.659 85.9759,210.44 85.9759,212.636 C 85.9759,214.831 87.7571,216.612 89.9524,216.612 C 92.1477,216.612 93.929,214.831 93.929,212.636 z M 93.886,225.585 C 93.886,223.39 92.1048,221.608 89.9056,221.608 C 87.7102,221.608 85.929,223.39 85.929,225.585 C 85.929,227.784 87.7102,229.565 89.9056,229.565 C 92.1048,229.565 93.886,227.784 93.886,225.585 z M 80.9251,199.667 C 80.9251,197.472 79.1438,195.69 76.9485,195.69 C 74.7532,195.69 72.972,197.472 72.972,199.667 C 72.972,201.862 74.7532,203.643 76.9485,203.643 C 79.1438,203.643 80.9251,201.862 80.9251,199.667 z M 80.9251,212.628 C 80.9251,210.429 79.1438,208.647 76.9485,208.647 C 74.7532,208.647 72.972,210.429 72.972,212.628 C 72.972,214.823 74.7532,216.604 76.9485,216.604 C 79.1438,216.604 80.9251,214.823 80.9251,212.628 z M 80.8821,225.585 C 80.8821,223.39 79.1009,221.608 76.9016,221.608 C 74.7063,221.608 72.9251,223.39 72.9251,225.585 C 72.9251,227.784 74.7063,229.565 76.9016,229.565 C 79.1009,229.565 80.8821,227.784 80.8821,225.585 z M 68.011,199.667 C 68.011,197.472 66.2298,195.69 64.0345,195.69 C 61.8352,195.69 60.054,197.472 60.054,199.667 C 60.054,201.862 61.8352,203.643 64.0345,203.643 C 66.2298,203.643 68.011,201.862 68.011,199.667 z M 67.9876,212.647 C 67.9876,210.452 66.2063,208.671 64.011,208.671 C 61.8157,208.671 60.0345,210.452 60.0345,212.647 C 60.0345,214.847 61.8118,216.628 64.011,216.628 C 66.2063,216.628 67.9876,214.847 67.9876,212.647 z M 67.9642,225.585 C 67.9642,223.39 66.1829,221.608 63.9876,221.608 C 61.7923,221.608 60.011,223.39 60.011,225.585 C 60.011,227.784 61.7923,229.565 63.9876,229.565 C 66.1829,229.565 67.9642,227.784 67.9642,225.585 z M 85.929,199.714 C 85.929,201.909 87.7102,203.69 89.9056,203.69 C 92.1048,203.69 93.886,201.909 93.886,199.714 C 93.886,197.515 92.1048,195.733 89.9056,195.733 C 87.7102,195.733 85.929,197.515 85.929,199.714 z M 79.2727,152.167 C 85.2571,154.464 119.589,167.659 125.573,169.96 C 124.28,173.319 119.14,186.702 114.495,198.78 C 108.831,183.565 94.1595,172.698 76.9993,172.698 C 75.0501,172.698 73.1204,172.843 71.222,173.112 C 73.9251,166.085 77.8587,155.847 79.2727,152.167 z M 114.772,232.753 L 146.831,233.921 C 202.694,229.882 239.143,185.339 239.143,129.327 C 239.143,126.936 129.905,181.12 129.905,181.12 L 136.268,165.28 C 136.268,165.28 236.866,116.858 236.987,116.741 C 230.331,91.2654 214.839,51.0464 161.722,51.0464 C 135.089,51.0464 113.788,61.9484 96.3274,90.2184 C 90.6516,99.4054 82.6087,145.093 82.6087,145.093 L 74.6751,141.827 L 73.2415,145.561 L 61.6438,175.741 C 56.8665,177.726 52.4837,180.647 48.7181,184.413 C 41.1595,191.968 37.0032,202.015 37.0032,212.698 C 36.9993,223.382 41.1595,233.425 48.7142,240.98 C 56.2688,248.535 66.3157,252.695 76.9993,252.695 C 87.6829,252.695 97.7259,248.535 105.28,240.98 C 107.831,238.433 109.987,235.597 111.733,232.554 L 112.917,232.632 L 114.772,232.753" id="path17" style="fill:#000000;fill-rule:evenodd;stroke:none"/>
    <path d="M 113.116,111.124 C 109.327,111.124 106.257,114.194 106.257,117.983 C 106.257,121.772 109.327,124.847 113.116,124.847 C 116.905,124.847 119.975,121.772 119.975,117.983 C 119.975,114.194 116.905,111.124 113.116,111.124" id="path19" style="fill:#ffffff;fill-rule:evenodd;stroke:none"/>
    <path d="M 29.6204,265.394 L 2.62042,265.394" id="path21" style="fill:none;stroke:#000000;stroke-width:0.5"/>
    <path d="M 38.6204,274.394 L 38.6204,301.394" id="path23" style="fill:none;stroke:#000000;stroke-width:0.5"/>
    <path d="M 29.6204,38.6204 L 2.62042,38.6204" id="path25" style="fill:none;stroke:#000000;stroke-width:0.5"/>
    <path d="M 38.6204,29.6204 L 38.6204,2.62042" id="path27" style="fill:none;stroke:#000000;stroke-width:0.5"/>
    <path d="M 274.39,38.6204 L 301.39,38.6204" id="path29" style="fill:none;stroke:#000000;stroke-width:0.5"/>
    <path d="M 265.39,29.6204 L 265.39,2.62042" id="path31" style="fill:none;stroke:#000000;stroke-width:0.5"/>
    <path d="M 274.39,265.394 L 301.39,265.394" id="path33" style="fill:none;stroke:#000000;stroke-width:0.5"/>
    <path d="M 265.39,274.394 L 265.39,301.394" id="path35" style="fill:none;stroke:#000000;stroke-width:0.5"/>
  </g>
</svg>

<svg xmlns="http://www.w3.org/2000/svg" viewBox="0 0 304 304"><g transform="matrix(1.35328 0 0 1.35328-53.21-52.19)" fill-rule="evenodd"><path d="m64.03 195.69c-2.199 0-3.98 1.782-3.98 3.977 0 2.195 1.781 3.976 3.98 3.976 2.195 0 3.977-1.781 3.977-3.976 0-2.195-1.781-3.977-3.977-3.977m12.914 0c-2.195 0-3.977 1.782-3.977 3.977 0 2.195 1.781 3.976 3.977 3.976 2.195 0 3.977-1.781 3.977-3.976 0-2.195-1.781-3.977-3.977-3.977m12.961 8c2.195 0 3.977-1.781 3.977-3.976 0-2.199-1.781-3.981-3.977-3.981-2.199 0-3.977 1.782-3.977 3.981 0 2.195 1.777 3.976 3.977 3.976m0 17.918c-2.199 0-3.977 1.782-3.977 3.977 0 2.199 1.777 3.98 3.977 3.98 2.195 0 3.977-1.781 3.977-3.98 0-2.195-1.781-3.977-3.977-3.977m.043-12.949c-2.195 0-3.977 1.781-3.977 3.977 0 2.195 1.781 3.976 3.977 3.976 2.195 0 3.977-1.781 3.977-3.976 0-2.196-1.781-3.977-3.977-3.977m-13.05 12.949c-2.195 0-3.977 1.782-3.977 3.977 0 2.199 1.781 3.98 3.977 3.98 2.199 0 3.98-1.781 3.98-3.98 0-2.195-1.781-3.977-3.98-3.977m-12.914 0c-2.195 0-3.977 1.782-3.977 3.977 0 2.199 1.781 3.98 3.977 3.98 2.195 0 3.977-1.781 3.977-3.98 0-2.195-1.781-3.977-3.977-3.977m12.961-12.961c-2.195 0-3.977 1.782-3.977 3.981 0 2.195 1.781 3.976 3.977 3.976 2.195 0 3.977-1.781 3.977-3.976 0-2.199-1.781-3.981-3.977-3.981m-12.938.024c-2.195 0-3.976 1.781-3.976 3.976 0 2.2 1.777 3.981 3.976 3.981 2.195 0 3.977-1.781 3.977-3.981 0-2.195-1.781-3.976-3.977-3.976m12.988 36.02c-8.551 0-16.582-3.328-22.625-9.372-6.05-6.04-9.375-14.08-9.375-22.625 0-8.547 3.332-16.582 9.375-22.629 6.04-6.04 14.08-9.371 22.625-9.371 17.644 0 32 14.12 32 32 0 27-23.453 31.997-32 31.997m16.93-32.06c0-2.196-1.781-3.977-3.977-3.977-2.195 0-3.977 1.781-3.977 3.977 0 2.195 1.781 3.976 3.977 3.976 2.195 0 3.977-1.781 3.977-3.976m-.043 12.949c0-2.195-1.781-3.977-3.98-3.977-2.195 0-3.977 1.782-3.977 3.977 0 2.199 1.781 3.98 3.977 3.98 2.199 0 3.98-1.781 3.98-3.98m-12.961-25.918c0-2.195-1.781-3.977-3.977-3.977-2.195 0-3.977 1.782-3.977 3.977 0 2.195 1.781 3.976 3.977 3.976 2.195 0 3.977-1.781 3.977-3.976m0 12.961c0-2.199-1.781-3.981-3.977-3.981-2.195 0-3.977 1.782-3.977 3.981 0 2.195 1.781 3.976 3.977 3.976 2.195 0 3.977-1.781 3.977-3.976m-.043 12.957c0-2.195-1.781-3.977-3.98-3.977-2.195 0-3.977 1.782-3.977 3.977 0 2.199 1.781 3.98 3.977 3.98 2.199 0 3.98-1.781 3.98-3.98m-12.871-25.918c0-2.195-1.781-3.977-3.977-3.977-2.199 0-3.98 1.782-3.98 3.977 0 2.195 1.781 3.976 3.98 3.976 2.195 0 3.977-1.781 3.977-3.976m-.023 12.98c0-2.195-1.781-3.976-3.977-3.976-2.195 0-3.976 1.781-3.976 3.976 0 2.2 1.777 3.981 3.976 3.981 2.195 0 3.977-1.781 3.977-3.981m-.023 12.938c0-2.195-1.781-3.977-3.977-3.977-2.195 0-3.977 1.782-3.977 3.977 0 2.199 1.781 3.98 3.977 3.98 2.195 0 3.977-1.781 3.977-3.98m17.965-25.871c0 2.195 1.781 3.976 3.977 3.976 2.199 0 3.98-1.781 3.98-3.976 0-2.199-1.781-3.981-3.98-3.981-2.195 0-3.977 1.782-3.977 3.981m-6.656-47.547c5.984 2.297 40.32 15.492 46.3 17.793-1.293 3.359-6.433 16.742-11.08 28.82-5.664-15.215-20.336-26.08-37.496-26.08-1.949 0-3.879.145-5.777.414 2.703-7.03 6.637-17.265 8.05-20.945m35.499 80.59l32.06 1.168c55.863-4.04 92.31-48.582 92.31-104.59 0-2.391-109.24 51.793-109.24 51.793l6.363-15.84c0 0 100.6-48.42 100.72-48.539-6.656-25.476-22.15-65.69-75.26-65.69-26.633 0-47.934 10.902-65.39 39.17-5.676 9.187-13.719 54.875-13.719 54.875l-7.934-3.266-1.434 3.734-11.598 30.18c-4.777 1.985-9.16 4.906-12.926 8.672-7.559 7.555-11.715 17.602-11.715 28.28-.004 10.684 4.156 20.727 11.711 28.28 7.555 7.555 17.602 11.715 28.29 11.715 10.684 0 20.727-4.16 28.28-11.715 2.551-2.547 4.707-5.383 6.453-8.426l1.184.078 1.855.121"/><path d="m113.12 111.12c-3.789 0-6.859 3.07-6.859 6.859 0 3.789 3.07 6.864 6.859 6.864 3.789 0 6.859-3.075 6.859-6.864 0-3.789-3.07-6.859-6.859-6.859" fill="#fff"/></g></svg>
